Simply-Blue-Circles/symbolic/places/folder-visiting-symbolic.svg

<svg xmlns="http://www.w3.org/2000/svg" width="24" height="24" version="1"><defs><linearGradient id="a"><stop offset="0"/><stop offset="1" stop-opacity="0"/></linearGradient></defs><path d="M4.365 5.023c-.759 0-1.37.61-1.37 1.37v2.285c0 .035.008.069.01.103v6.684h-.013v2.14c0 .466.267.813.62 1.061l9.533-9.533H5.629v2.023c0 .387-.255.7-.572.7-.318 0-.575-.313-.575-.7V8.79c0-.035.012-.066.016-.1-.004-.027-.016-.05-.016-.078 0-.266.202-.475.46-.507.021-.003.04-.014.062-.014H20.982l.024.002v-1.54H11.09L9.56 5.024H4.366zM21.008 9.13l-.02.004h-4.652l-9.844 9.844h4.72l9.796-9.795v-.053zm0 3.178l-6.67 6.67h5.297c.759 0 1.369-.612 1.369-1.372v-1.834h.004v-3.464z" fill="gray"/></svg>

<?xml version="1.0" encoding="UTF-8" standalone="no"?>
<svg
   xmlns:dc="http://purl.org/dc/elements/1.1/"
   xmlns:cc="http://creativecommons.org/ns#"
   xmlns:rdf="http://www.w3.org/1999/02/22-rdf-syntax-ns#"
   xmlns:svg="http://www.w3.org/2000/svg"
   xmlns="http://www.w3.org/2000/svg"
   xmlns:sodipodi="http://sodipodi.sourceforge.net/DTD/sodipodi-0.dtd"
   xmlns:inkscape="http://www.inkscape.org/namespaces/inkscape"
   width="24"
   height="24"
   version="1"
   id="svg11"
   sodipodi:docname="folder-visiting-symbolic.svg"
   inkscape:version="0.92.4 (5da689c313, 2019-01-14)">
  <metadata
     id="metadata15">
    <rdf:RDF>
      <cc:Work
         rdf:about="">
        <dc:format>image/svg+xml</dc:format>
        <dc:type
           rdf:resource="http://purl.org/dc/dcmitype/StillImage" />
        <dc:title></dc:title>
      </cc:Work>
    </rdf:RDF>
  </metadata>
  <sodipodi:namedview
     pagecolor="#ffffff"
     bordercolor="#666666"
     borderopacity="1"
     objecttolerance="10"
     gridtolerance="10"
     guidetolerance="10"
     inkscape:pageopacity="0"
     inkscape:pageshadow="2"
     inkscape:window-width="1085"
     inkscape:window-height="480"
     id="namedview13"
     showgrid="false"
     inkscape:zoom="9.8333333"
     inkscape:cx="1.0677966"
     inkscape:cy="12"
     inkscape:window-x="0"
     inkscape:window-y="25"
     inkscape:window-maximized="0"
     inkscape:current-layer="svg11" />
  <defs
     id="defs7">
    <linearGradient
       id="a">
      <stop
         offset="0"
         id="stop2" />
      <stop
         offset="1"
         stop-opacity="0"
         id="stop4" />
    </linearGradient>
  </defs>
  <path
     d="m 4.365,5.023 c -0.759,0 -1.37,0.61 -1.37,1.37 v 2.285 c 0,0.035 0.008,0.069 0.01,0.103 v 6.684 H 2.992 v 2.14 c 0,0.466 0.267,0.813 0.62,1.061 L 13.145,9.133 H 5.629 v 2.023 c 0,0.387 -0.255,0.7 -0.572,0.7 -0.318,0 -0.575,-0.313 -0.575,-0.7 V 8.79 C 4.482,8.755 4.494,8.724 4.498,8.69 4.494,8.663 4.482,8.64 4.482,8.612 4.482,8.346 4.684,8.137 4.942,8.105 4.963,8.102 4.982,8.091 5.004,8.091 h 15.978 l 0.024,0.002 V 6.553 H 11.09 L 9.56,5.024 H 4.366 Z m 16.643,4.107 -0.02,0.004 h -4.652 l -9.844,9.844 h 4.72 l 9.796,-9.795 z m 0,3.178 -6.67,6.67 h 5.297 c 0.759,0 1.369,-0.612 1.369,-1.372 v -1.834 h 0.004 z"
     id="path9"
     inkscape:connector-curvature="0"
     style="fill:#808080" />
</svg>
